en/_assets/data-transfer/icons/yds-icon.svg

<svg width="32" height="33" viewBox="0 0 32 33" fill="none" xmlns="http://www.w3.org/2000/svg">
<rect y="0.516602" width="32" height="32" rx="16" fill="#5282FF"/>
<path fill-rule="evenodd" clip-rule="evenodd" d="M19 22.0086C19 21.7816 19.051 21.5686 19.146 21.3686L17.298 19.5146H16V20.1946C16 20.9286 15.408 21.5146 14.679 21.5146H9.32C8.591 21.5146 8 20.9286 8 20.1946V11.8356C8 11.1026 8.592 10.5156 9.321 10.5156H14.68C15.41 10.5156 16.001 11.1026 16.001 11.8356V12.5156H17.299L19.146 10.6626C19.0361 10.4341 18.986 10.1814 19.0004 9.92823C19.0149 9.67507 19.0934 9.42972 19.2287 9.21521C19.3639 9.00071 19.5514 8.82407 19.7736 8.70187C19.9958 8.57968 20.2454 8.51593 20.499 8.51661C20.7242 8.51652 20.9466 8.56714 21.1496 8.66473C21.3525 8.76232 21.5309 8.90436 21.6715 9.08032C21.8121 9.25628 21.9112 9.46163 21.9616 9.68115C22.012 9.90067 22.0123 10.1287 21.9625 10.3484C21.9126 10.568 21.814 10.7736 21.6739 10.9499C21.5337 11.1262 21.3557 11.2687 21.153 11.3668C20.9502 11.4649 20.728 11.5161 20.5028 11.5166C20.2776 11.5171 20.0551 11.4668 19.852 11.3696L17.86 13.3696C17.7658 13.4628 17.6385 13.5149 17.506 13.5146H16V15.5146H21.082C21.288 14.9276 21.844 14.5146 22.498 14.5146C22.8958 14.5146 23.2774 14.6726 23.5587 14.9539C23.84 15.2353 23.998 15.6168 23.998 16.0146C23.998 16.4124 23.84 16.794 23.5587 17.0753C23.2774 17.3566 22.8958 17.5146 22.498 17.5146C21.844 17.5146 21.288 17.1006 21.082 16.5146H16V18.5146H17.506C17.638 18.5146 17.766 18.5676 17.86 18.6606L19.853 20.6606C20.0812 20.5502 20.3336 20.4996 20.5867 20.5134C20.8398 20.5272 21.0853 20.6051 21.3001 20.7397C21.5148 20.8744 21.6919 21.0613 21.8147 21.2831C21.9375 21.5048 22.0019 21.7541 22.002 22.0076C22.0029 22.2053 21.9647 22.4013 21.8896 22.5842C21.8146 22.7672 21.704 22.9334 21.5644 23.0735C21.4248 23.2136 21.2589 23.3246 21.0763 23.4003C20.8936 23.476 20.6977 23.5149 20.5 23.5146C20.3023 23.5149 20.1066 23.4761 19.924 23.4004C19.7414 23.3248 19.5755 23.2138 19.4359 23.0739C19.2963 22.9339 19.1858 22.7677 19.1106 22.5849C19.0355 22.4021 18.9972 22.2063 18.998 22.0086H19ZM15 18.0216V18.0086C14.9984 17.8774 14.9453 17.752 14.8522 17.6596C14.759 17.5672 14.6332 17.5151 14.502 17.5146H9.498C9.36677 17.5151 9.24101 17.5672 9.14784 17.6596C9.05467 17.752 9.00157 17.8774 9 18.0086V18.0216C9.00183 18.1527 9.05505 18.2777 9.14819 18.3699C9.24132 18.4621 9.36694 18.5141 9.498 18.5146H14.502C14.6331 18.5141 14.7587 18.4621 14.8518 18.3699C14.945 18.2777 14.9982 18.1527 15 18.0216ZM15 14.0216V14.0086C14.9982 13.8776 14.945 13.7525 14.8518 13.6603C14.7587 13.5681 14.6331 13.5161 14.502 13.5156H9.498C9.36694 13.5161 9.24132 13.5681 9.14819 13.6603C9.05505 13.7525 9.00183 13.8776 9 14.0086V14.0226C9.00209 14.1535 9.05542 14.2783 9.14853 14.3703C9.24164 14.4623 9.36711 14.5141 9.498 14.5146H14.502C14.6329 14.5141 14.7584 14.4623 14.8515 14.3703C14.9446 14.2783 14.9979 14.1535 15 14.0226V14.0216Z" fill="white"/>
</svg>

<svg xmlns="http://www.w3.org/2000/svg" width="32" height="33" fill="none"><rect width="32" height="32" y=".517" fill="#5282FF" rx="16"/><path fill="#fff" fill-rule="evenodd" d="M19 22.009c0-.227.051-.44.146-.64l-1.848-1.854H16v.68c0 .734-.592 1.32-1.321 1.32H9.32c-.729 0-1.32-.586-1.32-1.32v-8.36c0-.732.592-1.32 1.321-1.32h5.359c.73 0 1.321.588 1.321 1.32v.68h1.298l1.847-1.852a1.498 1.498 0 0 1 2.004-1.998 1.5 1.5 0 0 1-1.298 2.705l-1.992 2a.502.502 0 0 1-.354.145H16v2h5.082a1.5 1.5 0 1 1 0 1H16v2h1.506c.132 0 .26.053.354.146l1.993 2a1.497 1.497 0 0 1 2.037 1.923 1.498 1.498 0 0 1-1.39.93 1.498 1.498 0 0 1-1.502-1.505H19Zm-4-3.987v-.013a.5.5 0 0 0-.498-.494H9.498a.5.5 0 0 0-.498.494v.013a.5.5 0 0 0 .498.493h5.004a.5.5 0 0 0 .498-.493Zm0-4v-.013a.5.5 0 0 0-.498-.493H9.498a.5.5 0 0 0-.498.493v.014a.5.5 0 0 0 .498.492h5.004a.5.5 0 0 0 .498-.492v-.001Z" clip-rule="evenodd"/></svg>
